X:1
T:The street intrigue
T:The street intrigue
T:Thomas Arne (1710-1778)
T:www.sangerforum.no
T:www.sangerforum.no
C:Thomas Arne (1710-1778)
Z:www.sangerforum.no
%%score [ 1 2 3 ]
L:1/8
Q:3/8=60
M:6/8
K:Eb
V:1 treble nm="I"
V:2 treble nm="II"
V:3 treble nm="III"
V:1
|: G3/2 E/ E E3 | z2 B e B2 | z2 e e2 B | c B2 z2 E | A,3/2 A,/ A, B,3/2 B,/ B, | E3 z3 | %6
w: "Hark, you, my dear,|come hi- ther,|my dear, come|hi- ther, af-|ford me a mo- ment's de-|lay:|
 E3/2 F/ E D2 B, | F F2 z2 D | E3/2 F/ G F3/2 F/ F | B,3 z3 | z2 F F3/2 G/ =E | F3 z3 | z2 E F2 D | %13
w: where would you run, say|wi- ther, shall|you and I go to the|play?|Nay, don't be a-|fraid,|come, come, you|
 E3 B2 E | E2 E E D E | B,3 z2 D | E2 E F3/2 E/ D | E2 E F2 B, | E E A, B,3/2 B,/ B, | E3 z3 :| %20
w: jade, come be-|fore the gal- le- ry's|full; the|play is fine, and the|pan- to- mime's Eu-|ro- pa, a- stride on a|bull."|
V:2
|: z3 z2 G | A2 G z2 B | c2 B z2 G | A2 G e3 | c B A G2 F | G3 z2 G | G3 B2 B | B =A2 z2 B | %8
w: "Oh!|fie, sir, I|can't, sir, I|can't, sir. Lord!|What will the neigh- bours|say? They'd|all tell my|mo- ther, I|
 B2 B/ B/ B3/2 c/ =A | B3 B3/2 A/ G | c3 z2 c | c2 F A3/2 G/ F | B3 z2 B | B2 E z2 B | %14
w: went with a man to the|play. Let me be|gone, I|trem- ble, let me be|gone, I|trem- ble. Ex-|
 c c B A A G | F3 z2 B | B2 B B B B | B2 B B2 d | e B A G3/2 A/ F | G3 z3 :| %20
w: cuse me now, I must re-|treat, or|else be chid- den, and|pinch'd, and drubb'd for|talk- ing with you in the|street."|
V:3
|: B2 G/ G/ G2 B/ B/ | c B2 z2 G/ G/ | A G2 z3 | e2 B z2 G | A G F E E D | E2 B e2 B | B2 B F2 d | %7
w: "So, mis- tress minx, have I|caught you, have I|caught you?|Hey day! What|do- ings, what do- ings are|here? Come home, you|slut, come home, odd|
 d c f f2 B | c2 e d e c | B3 z3 | z2 A A3/2 B/ G | A3 z3 | z2 G A2 F/ F/ | G2 z z2 G | %14
w: rot it, come home and|draw my cus- to- mers'|beer.|Sir, loo- sen her|hand,|and go to the|Strand, the|
 A A G c F E | D3 z2 F | G2 G A G F | G2 G A2 F | G2 F E3/2 F/ D | E3 z3 :| %20
w: mar- ket for im- pu- dent|whores; if|e'er she flirts it with|you a- gain, I'll|turn her out of my|doors."|

